; generated by Slic3r 1.2.9 on 2017-07-17 at 15:53:19

; external perimeters extrusion width = 0.50mm
; perimeters extrusion width = 0.72mm
; infill extrusion width = 0.72mm
; solid infill extrusion width = 0.72mm
; top infill extrusion width = 0.72mm

M107
M104 S200 ; set temperature
G28 ; home all axes
G1 Z5 F5000 ; lift nozzle

M109 S200 ; wait for temperature to be reached
G21 ; set units to millimeters
G90 ; use absolute coordinates
M82 ; use absolute distances for extrusion
G92 E0
G1 Z0.350 F7800.000
G1 E-2.00000 F2400.00000
G92 E0
G1 X74.487 Y76.363 F7800.000
G1 E2.00000 F2400.00000
G1 X75.143 Y75.773 E2.02728 F1800.000
G1 X75.622 Y75.394 E2.04620
G1 X76.121 Y75.040 E2.06514
G1 X76.939 Y74.539 E2.09482
G1 X77.481 Y74.255 E2.11374
G1 X78.039 Y73.999 E2.13274
G1 X78.608 Y73.773 E2.15169
G1 X79.184 Y73.578 E2.17051
G1 X80.038 Y73.349 E2.19785
G1 X80.976 Y73.175 E2.22737
G1 X81.857 Y73.082 E2.25477
G1 X82.641 Y73.055 E2.27905
G1 X123.450 Y73.057 E3.54174
G1 X124.062 Y73.082 E3.56069 F1800.000
G1 X124.676 Y73.139 E3.57976
G1 X125.278 Y73.228 E3.59861
G1 X125.881 Y73.348 E3.61762
G1 X126.476 Y73.501 E3.63664
G1 X127.060 Y73.683 E3.65554
G1 X127.883 Y73.999 E3.68283
G1 X128.439 Y74.254 E3.70175
G1 X128.982 Y74.539 E3.72074
G1 X129.800 Y75.040 E3.75042
G1 X130.299 Y75.394 E3.76936
G1 X130.779 Y75.774 E3.78828
G1 X131.240 Y76.179 E3.80726
G1 X131.678 Y76.607 E3.82622
G1 X132.267 Y77.262 E3.85348
G1 X132.647 Y77.741 E3.87240
G1 X133.001 Y78.240 E3.89134
G1 X133.329 Y78.758 E3.91030
G1 X133.629 Y79.292 E3.92926
G1 X133.901 Y79.842 E3.94825
G1 X134.144 Y80.404 E3.96717
G1 X134.464 Y81.309 E3.99690
G1 X134.629 Y81.898 E4.01582
G1 X134.764 Y82.496 E4.03477
G1 X134.867 Y83.101 E4.05376
G1 X134.938 Y83.711 E4.07276
G1 X134.986 Y84.760 E4.10526
G1 X134.986 Y115.240 E5.04835
G1 X134.958 Y116.024 E5.07263
G1 X134.901 Y116.635 E5.09162
G1 X134.812 Y117.243 E5.11062
G1 X134.629 Y118.102 E5.13778
G1 X134.357 Y119.022 E5.16748
G1 X134.042 Y119.842 E5.19467
G1 X133.629 Y120.708 E5.22434
G1 X133.190 Y121.469 E5.25153
G1 X132.647 Y122.259 E5.28119
G1 X132.094 Y122.941 E5.30834
G1 X131.434 Y123.637 E5.33804
G1 X130.779 Y124.226 E5.36530
G1 X130.019 Y124.809 E5.39493
G1 X129.283 Y125.288 E5.42211
G1 X128.439 Y125.746 E5.45180
G1 X127.637 Y126.103 E5.47897
G1 X126.731 Y126.424 E5.50870
G1 X125.884 Y126.651 E5.53585
G1 X124.940 Y126.826 E5.56556
G1 X124.065 Y126.918 E5.59277
G1 X123.281 Y126.945 E5.61705
G1 X82.641 Y126.945 E6.87451
G1 X81.857 Y126.918 E6.89879
G1 X80.982 Y126.826 E6.92600
G1 X80.376 Y126.723 E6.94500
G1 X79.779 Y126.589 E6.96395
G1 X78.859 Y126.316 E6.99364
G1 X78.285 Y126.103 E7.01259
G1 X77.723 Y125.861 E7.03152
G1 X76.939 Y125.461 E7.05873
G1 X76.412 Y125.149 E7.07769
G1 X75.902 Y124.809 E7.09665
G1 X75.411 Y124.444 E7.11559
G1 X74.940 Y124.054 E7.13451
G1 X74.244 Y123.393 E7.16422
G1 X73.654 Y122.738 E7.19147
G1 X73.071 Y121.979 E7.22110
G1 X72.593 Y121.241 E7.24830
G1 X72.135 Y120.398 E7.27800
G1 X65.459 Y105.763 E7.77570
G1 X65.175 Y105.056 E7.79928
G1 X64.930 Y104.334 E7.82287
G1 X64.722 Y103.601 E7.84645
G1 X64.553 Y102.859 E7.87000
G1 X64.423 Y102.106 E7.89365
G1 X64.332 Y101.349 E7.91721
G1 X64.282 Y100.589 E7.94079
G1 X64.271 Y99.826 E7.96440
G1 X64.300 Y99.065 E7.98797
G1 X64.368 Y98.306 E8.01154
G1 X64.553 Y97.141 E8.04804
G1 X64.722 Y96.399 E8.07158
G1 X64.930 Y95.664 E8.09523
G1 X65.176 Y94.942 E8.11882
G1 X65.459 Y94.235 E8.14239
G1 X72.135 Y79.601 E8.64006
G1 X72.593 Y78.758 E8.66975
G1 X73.073 Y78.019 E8.69702
G1 X73.654 Y77.262 E8.72656
G1 X74.061 Y76.800 E8.74560
G1 X74.434 Y76.416 E8.76216
G1 E6.76216 F2400.00000
G92 E0
G1 X79.126 Y103.912 F7800.000
G1 E2.00000 F2400.00000
G1 X77.218 Y103.912 E2.05905 F1800.000
G1 X76.876 Y103.894 E2.06965
G1 X76.500 Y103.834 E2.08143
G1 X75.995 Y103.685 E2.09772
G1 X75.647 Y103.530 E2.10950
G1 X75.317 Y103.339 E2.12128
G1 X74.889 Y103.011 E2.13797
G1 X74.509 Y102.611 E2.15505
G1 X74.197 Y102.156 E2.17213
G1 X73.965 Y101.669 E2.18881
G1 X73.843 Y101.295 E2.20099
G1 X73.743 Y100.756 E2.21794
G1 X73.731 Y99.411 E2.25958
G1 X73.801 Y98.884 E2.27600
G1 X73.902 Y98.504 E2.28818
G1 X74.109 Y98.006 E2.30486
G1 X74.391 Y97.546 E2.32155
G1 X74.638 Y97.240 E2.33373
G1 X75.020 Y96.878 E2.35001
G1 X75.339 Y96.647 E2.36219
G1 X75.812 Y96.389 E2.37888
G1 X76.321 Y96.209 E2.39556
G1 X76.693 Y96.130 E2.40735
G1 X77.059 Y96.092 E2.41871
G1 X79.126 Y96.089 E2.48268
G1 X79.126 Y84.722 E2.83441
G1 X79.166 Y84.210 E2.85030
G1 X79.292 Y83.685 E2.86698
G1 X79.429 Y83.330 E2.87877
G1 X79.596 Y83.002 E2.89015
G1 X79.796 Y82.693 E2.90154
G1 X80.036 Y82.397 E2.91332
G1 X80.427 Y82.026 E2.93001
G1 X80.882 Y81.713 E2.94709
G1 X81.380 Y81.476 E2.96417
G1 X81.897 Y81.323 E2.98085
G1 X82.273 Y81.263 E2.99264
G1 X82.615 Y81.245 E3.00324
G1 X123.306 Y81.245 E4.26227
G1 X123.648 Y81.263 E4.27287
G1 X124.024 Y81.323 E4.28465
G1 X124.542 Y81.476 E4.30134
G1 X125.040 Y81.713 E4.31841
G1 X125.484 Y82.019 E4.33509
G1 X125.767 Y82.274 E4.34689
G1 X126.013 Y82.547 E4.35827
G1 X126.230 Y82.845 E4.36966
G1 X126.414 Y83.164 E4.38105
G1 X126.563 Y83.500 E4.39243
G1 X126.681 Y83.862 E4.40422
G1 X126.777 Y84.380 E4.42051
G1 X126.796 Y84.734 E4.43150
G1 X126.796 Y115.265 E5.37617
G1 X126.778 Y115.608 E5.38677
G1 X126.718 Y115.984 E5.39855
G1 X126.565 Y116.501 E5.41524
G1 X126.327 Y116.999 E5.43232
G1 X126.022 Y117.443 E5.44900
G1 X125.767 Y117.726 E5.46078
G1 X125.493 Y117.973 E5.47218
G1 X125.196 Y118.189 E5.48356
G1 X124.877 Y118.373 E5.49495
G1 X124.541 Y118.523 E5.50633
G1 X124.179 Y118.640 E5.51812
G1 X123.661 Y118.736 E5.53441
G1 X123.306 Y118.755 E5.54540
G1 X82.602 Y118.755 E6.80483
G1 X82.090 Y118.715 E6.82072
G1 X81.554 Y118.586 E6.83780
G1 X81.056 Y118.379 E6.85448
G1 X80.726 Y118.189 E6.86627
G1 X80.428 Y117.973 E6.87765
G1 X80.154 Y117.726 E6.88905
G1 X79.908 Y117.453 E6.90044
G1 X79.692 Y117.155 E6.91182
G1 X79.508 Y116.836 E6.92321
G1 X79.358 Y116.500 E6.93459
G1 X79.244 Y116.150 E6.94599
G1 X79.168 Y115.790 E6.95738
G1 X79.129 Y115.424 E6.96876
G1 X79.126 Y103.987 E7.32264
G1 X79.751 Y103.287 F7800.000
G1 X77.234 Y103.287 E7.40052 F1800.000
G1 X76.941 Y103.272 E7.40959
G1 X76.638 Y103.223 E7.41910
G1 X76.212 Y103.097 E7.43285
G1 X75.931 Y102.972 E7.44235
G1 X75.665 Y102.819 E7.45186
G1 X75.309 Y102.545 E7.46575
G1 X74.996 Y102.216 E7.47979
G1 X74.739 Y101.842 E7.49383
G1 X74.546 Y101.437 E7.50772
G1 X74.450 Y101.141 E7.51737
G1 X74.367 Y100.696 E7.53136
G1 X74.357 Y99.449 E7.56995
G1 X74.415 Y99.007 E7.58375
G1 X74.495 Y98.705 E7.59339
G1 X74.667 Y98.291 E7.60729
G1 X74.902 Y97.908 E7.62118
G1 X75.098 Y97.665 E7.63083
G1 X75.420 Y97.360 E7.64458
G1 X75.673 Y97.176 E7.65423
G1 X76.067 Y96.962 E7.66812
G1 X76.491 Y96.812 E7.68202
G1 X76.791 Y96.748 E7.69152
G1 X77.092 Y96.717 E7.70088
G1 X79.751 Y96.714 E7.78315
G1 X79.751 Y84.746 E8.15343
G1 X79.785 Y84.308 E8.16704
G1 X79.890 Y83.871 E8.18094
G1 X80.000 Y83.584 E8.19044
G1 X80.138 Y83.315 E8.19980
G1 X80.302 Y83.061 E8.20916
G1 X80.496 Y82.822 E8.21867
G1 X80.821 Y82.513 E8.23256
G1 X81.195 Y82.256 E8.24660
G1 X81.605 Y82.061 E8.26063
G1 X82.035 Y81.933 E8.27453
G1 X82.339 Y81.885 E8.28403
G1 X82.632 Y81.870 E8.29311
G1 X123.290 Y81.870 E9.55113
G1 X123.583 Y81.885 E9.56021
G1 X123.886 Y81.933 E9.56971
G1 X124.317 Y82.061 E9.58361
G1 X124.726 Y82.256 E9.59764
G1 X125.096 Y82.511 E9.61154
G1 X125.325 Y82.716 E9.62104
G1 X125.527 Y82.941 E9.63040
G1 X125.705 Y83.186 E9.63976
G1 X125.856 Y83.448 E9.64913
G1 X125.979 Y83.724 E9.65849
G1 X126.074 Y84.016 E9.66799
G1 X126.155 Y84.453 E9.68174
G1 X126.171 Y84.751 E9.69096
G1 X126.171 Y115.249 E10.63462
G1 X126.155 Y115.542 E10.64370
G1 X126.107 Y115.845 E10.65320
G1 X125.980 Y116.276 E10.66710
G1 X125.784 Y116.686 E10.68114
G1 X125.530 Y117.056 E10.69503
G1 X125.325 Y117.284 E10.70453
G1 X125.100 Y117.486 E10.71390
G1 X124.855 Y117.664 E10.72326
G1 X124.593 Y117.815 E10.73262
G1 X124.317 Y117.938 E10.74198
G1 X124.024 Y118.033 E10.75148
G1 X123.587 Y118.114 E10.76524
G1 X123.290 Y118.130 E10.77445
G1 X82.627 Y118.130 E12.03262
G1 X82.189 Y118.095 E12.04623
G1 X81.747 Y117.990 E12.06026
G1 X81.333 Y117.818 E12.07416
G1 X81.066 Y117.664 E12.08366
G1 X80.822 Y117.486 E12.09302
G1 X80.597 Y117.284 E12.10239
G1 X80.394 Y117.059 E12.11175
G1 X80.217 Y116.814 E12.12111
G1 X80.065 Y116.552 E12.13047
G1 X79.942 Y116.276 E12.13983
G1 X79.849 Y115.988 E12.14920
G1 X79.786 Y115.692 E12.15856
G1 X79.754 Y115.391 E12.16792
G1 X79.751 Y103.362 E12.54012
G1 X79.318 Y103.537 F7800.000
G1 X78.501 Y104.537 F7800.000
G1 X78.502 Y106.400 E12.59777 F1800.000
G1 X77.192 Y106.120 E12.63922
G1 X76.540 Y105.908 E12.66041
G1 X76.272 Y105.797 E12.66938
G1 X75.644 Y105.477 E12.69120
G1 X75.397 Y105.326 E12.70017
G1 X74.844 Y104.924 E12.72133
G1 X74.351 Y104.480 E12.74185
G1 X73.893 Y103.971 E12.76302
G1 X73.717 Y103.741 E12.77199
G1 X73.344 Y103.168 E12.79316
G1 X73.033 Y102.558 E12.81432
G1 X72.923 Y102.290 E12.82329
G1 X72.711 Y101.640 E12.84446
G1 X72.573 Y100.991 E12.86498
G1 X72.502 Y100.311 E12.88615
G1 X72.494 Y100.000 E12.89577
G1 X72.502 Y99.689 E12.90538
G1 X72.573 Y99.009 E12.92655
G1 X72.711 Y98.360 E12.94707
G1 X72.922 Y97.712 E12.96816
G1 X73.034 Y97.442 E12.97722
G1 X73.344 Y96.832 E12.99837
G1 X73.717 Y96.258 E13.01954
G1 X73.893 Y96.029 E13.02851
G1 X74.351 Y95.520 E13.04968
G1 X74.844 Y95.076 E13.07020
G1 X75.397 Y94.674 E13.09136
G1 X75.644 Y94.523 E13.10033
G1 X76.272 Y94.203 E13.12215
G1 X76.540 Y94.092 E13.13112
G1 X77.192 Y93.880 E13.15231
G1 X78.501 Y93.601 E13.19373
G1 X78.501 Y95.465 E13.25143
G1 X77.026 Y95.467 E13.29708
G1 X76.595 Y95.512 E13.31046
G1 X76.151 Y95.607 E13.32453
G1 X75.557 Y95.817 E13.34400
G1 X75.004 Y96.117 E13.36348
G1 X74.620 Y96.397 E13.37819
G1 X74.178 Y96.815 E13.39701
G1 X73.879 Y97.185 E13.41173
G1 X73.550 Y97.721 E13.43120
G1 X73.309 Y98.303 E13.45067
G1 X73.186 Y98.762 E13.46539
G1 X73.106 Y99.372 E13.48443
G1 X73.119 Y100.816 E13.52910
G1 X73.236 Y101.449 E13.54901
G1 X73.383 Y101.901 E13.56373
G1 X73.654 Y102.469 E13.58320
G1 X74.022 Y103.005 E13.60332
G1 X74.470 Y103.477 E13.62345
G1 X74.969 Y103.860 E13.64292
G1 X75.363 Y104.087 E13.65699
G1 X75.778 Y104.272 E13.67105
G1 X76.361 Y104.445 E13.68987
G1 X76.810 Y104.516 E13.70394
G1 X77.201 Y104.537 E13.71605
G1 X78.426 Y104.537 E13.75396
G1 X78.536 Y107.046 F7800.000
G1 X77.029 Y106.724 E13.80161 F1800.000
G1 X76.324 Y106.495 E13.82457
G1 X76.011 Y106.365 E13.83506
G1 X75.339 Y106.023 E13.85839
G1 X75.050 Y105.846 E13.86888
G1 X74.450 Y105.410 E13.89182
G1 X73.908 Y104.922 E13.91437
G1 X73.412 Y104.371 E13.93731
G1 X73.206 Y104.102 E13.94779
G1 X72.802 Y103.481 E13.97074
G1 X72.465 Y102.820 E13.99368
G1 X72.336 Y102.507 E14.00416
G1 X72.107 Y101.802 E14.02710
G1 X71.955 Y101.089 E14.04965
G1 X71.878 Y100.352 E14.07259
G1 X71.878 Y99.648 E14.09435
G1 X71.955 Y98.911 E14.11729
G1 X72.107 Y98.198 E14.13984
G1 X72.335 Y97.496 E14.16269
G1 X72.466 Y97.180 E14.17327
G1 X72.802 Y96.519 E14.19620
G1 X73.206 Y95.898 E14.21915
G1 X73.412 Y95.629 E14.22963
G1 X73.908 Y95.078 E14.25257
G1 X74.450 Y94.590 E14.27512
G1 X75.050 Y94.154 E14.29806
G1 X75.339 Y93.977 E14.30855
G1 X76.011 Y93.635 E14.33188
G1 X76.324 Y93.505 E14.34237
G1 X77.029 Y93.276 E14.36533
G1 X78.536 Y92.954 E14.41298
G1 X78.536 Y84.785 E14.66573
G1 X78.560 Y84.320 E14.68016
G1 X78.623 Y83.919 E14.69271
G1 X78.741 Y83.480 E14.70679
G1 X78.984 Y82.897 E14.72633
G1 X79.199 Y82.525 E14.73962
G1 X79.459 Y82.167 E14.75331
G1 X79.895 Y81.710 E14.77284
G1 X80.229 Y81.440 E14.78613
G1 X80.766 Y81.109 E14.80566
G1 X81.362 Y80.860 E14.82564
G1 X81.800 Y80.743 E14.83967
G1 X82.426 Y80.662 E14.85920
G1 X123.257 Y80.655 E16.12257
G1 X123.710 Y80.679 E16.13659
G1 X124.134 Y80.746 E16.14989
G1 X124.740 Y80.924 E16.16942
G1 X125.322 Y81.199 E16.18935
G1 X125.693 Y81.440 E16.20303
G1 X126.027 Y81.710 E16.21633
G1 X126.339 Y82.023 E16.23001
G1 X126.722 Y82.525 E16.24954
G1 X126.937 Y82.897 E16.26283
G1 X127.180 Y83.480 E16.28237
G1 X127.295 Y83.907 E16.29605
G1 X127.362 Y84.331 E16.30935
G1 X127.386 Y84.785 E16.32342
G1 X127.379 Y115.455 E17.27237
G1 X127.334 Y115.882 E17.28567
G1 X127.245 Y116.302 E17.29895
G1 X127.112 Y116.711 E17.31225
G1 X126.937 Y117.103 E17.32554
G1 X126.722 Y117.475 E17.33883
G1 X126.339 Y117.977 E17.35837
G1 X126.027 Y118.290 E17.37205
G1 X125.693 Y118.560 E17.38534
G1 X125.156 Y118.891 E17.40487
G1 X124.561 Y119.140 E17.42480
G1 X124.122 Y119.257 E17.43888
G1 X123.496 Y119.338 E17.45841
G1 X82.666 Y119.345 E18.72173
G1 X82.212 Y119.321 E18.73581
G1 X81.788 Y119.254 E18.74910
G1 X81.373 Y119.143 E18.76239
G1 X80.972 Y118.989 E18.77568
G1 X80.589 Y118.794 E18.78897
G1 X80.229 Y118.560 E18.80226
G1 X79.895 Y118.290 E18.81555
G1 X79.591 Y117.986 E18.82884
G1 X79.205 Y117.486 E18.84837
G1 X78.896 Y116.921 E18.86830
G1 X78.679 Y116.314 E18.88824
G1 X78.560 Y115.682 E18.90816
G1 X78.536 Y115.214 E18.92264
G1 X78.536 Y107.121 E19.17306
G1 X77.911 Y107.551 F7800.000
G1 X76.867 Y107.329 E19.20608 F1800.000
G1 X76.107 Y107.082 E19.23080
G1 X75.749 Y106.933 E19.24281
G1 X75.033 Y106.568 E19.26766
G1 X74.702 Y106.366 E19.27967
G1 X74.056 Y105.896 E19.30438
G1 X73.466 Y105.365 E19.32896
G1 X72.931 Y104.771 E19.35367
G1 X72.695 Y104.463 E19.36568
G1 X72.260 Y103.794 E19.39039
G1 X71.898 Y103.082 E19.41510
G1 X71.749 Y102.723 E19.42711
G1 X71.502 Y101.964 E19.45183
G1 X71.337 Y101.187 E19.47640
G1 X71.254 Y100.393 E19.50111
G1 X71.254 Y99.607 E19.52540
G1 X71.337 Y98.813 E19.55011
G1 X71.502 Y98.036 E19.57469
G1 X71.748 Y97.279 E19.59931
G1 X71.898 Y96.918 E19.61141
G1 X72.260 Y96.206 E19.63612
G1 X72.695 Y95.537 E19.66084
G1 X72.931 Y95.229 E19.67284
G1 X73.466 Y94.635 E19.69756
G1 X74.056 Y94.104 E19.72213
G1 X74.702 Y93.634 E19.74684
G1 X75.033 Y93.432 E19.75885
G1 X75.749 Y93.067 E19.78371
G1 X76.107 Y92.918 E19.79571
G1 X76.867 Y92.671 E19.82043
G1 X77.911 Y92.449 E19.85345
G1 X77.911 Y84.769 E20.09106
G1 X77.937 Y84.263 E20.10675
G1 X78.013 Y83.781 E20.12184
G1 X78.144 Y83.294 E20.13744
G1 X78.223 Y83.069 E20.14482
G1 X78.427 Y82.613 E20.16028
G1 X78.674 Y82.184 E20.17560
G1 X78.968 Y81.780 E20.19105
G1 X79.123 Y81.599 E20.19843
G1 X79.476 Y81.245 E20.21389
G1 X79.861 Y80.934 E20.22921
G1 X80.280 Y80.662 E20.24467
G1 X80.489 Y80.548 E20.25205
G1 X80.950 Y80.343 E20.26765
G1 X81.177 Y80.263 E20.27508
G1 X81.662 Y80.133 E20.29063
G1 X81.898 Y80.089 E20.29806
G1 X82.393 Y80.037 E20.31346
G1 X123.273 Y80.030 E21.57836
G1 X123.775 Y80.056 E21.59390
G1 X124.264 Y80.134 E21.60922
G1 X124.747 Y80.263 E21.62467
G1 X124.971 Y80.343 E21.63205
G1 X125.432 Y80.548 E21.64766
G1 X125.642 Y80.662 E21.65503
G1 X126.061 Y80.934 E21.67049
G1 X126.445 Y81.245 E21.68581
G1 X126.799 Y81.599 E21.70127
G1 X126.954 Y81.780 E21.70865
G1 X127.247 Y82.184 E21.72411
G1 X127.495 Y82.613 E21.73942
G1 X127.698 Y83.069 E21.75488
G1 X127.778 Y83.294 E21.76226
G1 X127.907 Y83.777 E21.77772
G1 X127.984 Y84.266 E21.79304
G1 X128.011 Y84.769 E21.80864
G1 X128.004 Y115.488 E22.75911
G1 X127.952 Y115.980 E22.77442
G1 X127.849 Y116.464 E22.78974
G1 X127.696 Y116.935 E22.80506
G1 X127.495 Y117.387 E22.82038
G1 X127.247 Y117.816 E22.83570
G1 X126.955 Y118.219 E22.85110
G1 X126.799 Y118.402 E22.85853
G1 X126.445 Y118.755 E22.87399
G1 X126.061 Y119.066 E22.88931
G1 X125.642 Y119.338 E22.90477
G1 X125.432 Y119.452 E22.91215
G1 X124.971 Y119.657 E22.92775
G1 X124.747 Y119.737 E22.93513
G1 X124.260 Y119.867 E22.95073
G1 X124.025 Y119.911 E22.95811
G1 X123.528 Y119.963 E22.97356
G1 X82.650 Y119.970 E24.23840
G1 X82.146 Y119.944 E24.25400
G1 X81.657 Y119.866 E24.26931
G1 X81.179 Y119.738 E24.28463
G1 X80.717 Y119.561 E24.29995
G1 X80.276 Y119.336 E24.31527
G1 X79.861 Y119.066 E24.33058
G1 X79.476 Y118.755 E24.34590
G1 X79.126 Y118.405 E24.36122
G1 X78.812 Y118.016 E24.37668
G1 X78.677 Y117.820 E24.38406
G1 X78.424 Y117.383 E24.39966
G1 X78.322 Y117.168 E24.40704
G1 X78.142 Y116.699 E24.42258
G1 X78.073 Y116.469 E24.43002
G1 X77.969 Y115.977 E24.44556
G1 X77.937 Y115.739 E24.45300
G1 X77.911 Y115.231 E24.46874
G1 X77.911 Y107.626 E24.70403
G1 X77.981 Y107.056 F7800.000
G1 X77.590 Y105.787 F7800.000
