; generated by Slic3r 1.0.0RC1 on 2015-01-12 at 15:55:07

; layer_height = 0.15
; perimeters = 2
; top_solid_layers = 6
; bottom_solid_layers = 5
; fill_density = 0.4
; perimeter_speed = 100
; infill_speed = 120
; travel_speed = 130
; nozzle_diameter = 0.5
; filament_diameter = 2.85
; extrusion_multiplier = 1
; perimeters extrusion width = 0.50mm
; infill extrusion width = 1.34mm
; solid infill extrusion width = 0.85mm
; top infill extrusion width = 0.85mm
; first layer extrusion width = 0.60mm

G21 ; set units to millimeters
M107
M190 S90 ; wait for bed temperature to be reached
M104 S195 ; set temperature
G28
M109 S195 ; wait for temperature to be reached
G90 ; use absolute coordinates
G92 E0
M82 ; use absolute distances for extrusion
G1 F4200.000 E-0.70000
G92 E0
G1 Z0.300 F7800.000
G1 X58.029 Y27.023 F7800.000
G1 E0.70000 F4200.000
G1 X58.649 Y26.013 E0.73224 F600.000
G1 X59.559 Y25.233 E0.76485
G1 X60.609 Y24.583 E0.79845
G1 X61.179 Y24.293 E0.81585
G1 X61.789 Y24.103 E0.83323
G1 X63.689 Y23.683 E0.88617
G1 X68.289 Y23.083 E1.01238
G1 X73.169 Y22.673 E1.14562
G1 X85.139 Y22.123 E1.47163
G1 X100.579 Y21.923 E1.89173
G1 X115.929 Y22.153 E2.30940
G1 X128.079 Y22.753 E2.64036
G1 X132.869 Y23.173 E2.77118
G1 X137.259 Y23.753 E2.89166
G1 X137.599 Y23.813 E2.90105
G1 X139.069 Y24.143 E2.94204
G1 X139.619 Y24.313 E2.95770
G1 X140.129 Y24.553 E2.97304
G1 X141.369 Y25.253 E3.01178
G1 X142.359 Y26.053 E3.04641
G1 X143.039 Y27.123 E3.08090
G1 X143.339 Y28.353 E3.11535
G1 X147.499 Y84.773 E4.65451
G1 X147.509 Y85.113 E4.66377
G1 X147.489 Y85.453 E4.67303
G1 X147.309 Y87.233 E4.72171
G1 X147.249 Y87.643 E4.73298
G1 X147.139 Y88.043 E4.74427
G1 X121.289 Y167.753 E7.02410
G1 X121.149 Y168.133 E7.03511
G1 X120.959 Y168.493 E7.04619
G1 X119.689 Y170.673 E7.11483
G1 X119.449 Y170.983 E7.12550
G1 X117.609 Y173.083 E7.20146
G1 X117.279 Y173.413 E7.21416
G1 X116.909 Y173.703 E7.22695
G1 X115.149 Y174.933 E7.28536
G1 X114.679 Y175.213 E7.30025
G1 X114.169 Y175.433 E7.31536
G1 X112.869 Y175.873 E7.35270
G1 X112.379 Y176.003 E7.36649
G1 X103.209 Y177.823 E7.62084
G1 X102.689 Y177.893 E7.63512
G1 X99.779 Y178.073 E7.71444
G1 X99.289 Y178.063 E7.72777
G1 X96.699 Y177.893 E7.79839
G1 X96.139 Y177.823 E7.81375
G1 X86.649 Y175.793 E8.07778
G1 X86.129 Y175.643 E8.09250
G1 X84.809 Y175.163 E8.13072
G1 X84.309 Y174.943 E8.14558
G1 X83.849 Y174.643 E8.16052
G1 X82.149 Y173.403 E8.21777
G1 X81.789 Y173.113 E8.23034
G1 X81.469 Y172.773 E8.24305
G1 X79.669 Y170.643 E8.31892
G1 X79.429 Y170.333 E8.32958
G1 X79.219 Y170.003 E8.34023
G1 X78.159 Y168.063 E8.40037
G1 X77.999 Y167.713 E8.41084
G1 X77.869 Y167.363 E8.42100
G1 X52.899 Y87.883 E10.68759
G1 X52.759 Y87.313 E10.70356
G1 X52.539 Y85.893 E10.74265
G1 X52.499 Y85.223 E10.76091
G1 X52.529 Y83.853 E10.79819
G1 X57.729 Y28.183 E12.31938
G1 X58.008 Y27.107 E12.34962
G1 X58.559 Y27.253 F7800.000
G1 X59.089 Y26.383 E12.37733 F600.000
G1 X59.869 Y25.723 E12.40513
G1 X60.919 Y25.073 E12.43873
G1 X61.399 Y24.823 E12.45345
G1 X61.919 Y24.663 E12.46826
G1 X63.759 Y24.253 E12.51954
G1 X68.359 Y23.653 E12.64575
G1 X73.199 Y23.253 E12.77788
G1 X85.169 Y22.703 E13.10389
G1 X100.569 Y22.503 E13.52291
G1 X115.899 Y22.733 E13.94003
G1 X128.049 Y23.333 E14.27100
G1 X132.789 Y23.743 E14.40044
G1 X137.179 Y24.323 E14.52091
G1 X138.949 Y24.713 E14.57022
G1 X139.409 Y24.853 E14.58331
G1 X139.849 Y25.053 E14.59646
G1 X141.089 Y25.753 E14.63520
G1 X141.929 Y26.433 E14.66460
G1 X142.509 Y27.353 E14.69419
G1 X142.769 Y28.403 E14.72362
G1 X146.929 Y84.823 E16.26278
G1 X146.919 Y85.393 E16.27829
G1 X146.739 Y87.173 E16.32697
G1 X146.679 Y87.523 E16.33663
G1 X146.589 Y87.863 E16.34620
G1 X120.739 Y167.573 E18.62603
G1 X120.619 Y167.893 E18.63533
G1 X120.459 Y168.203 E18.64482
G1 X119.219 Y170.343 E18.71211
G1 X117.169 Y172.693 E18.79695
G1 X116.889 Y172.983 E18.80792
G1 X116.579 Y173.233 E18.81875
G1 X114.819 Y174.463 E18.87717
G1 X114.419 Y174.703 E18.88986
G1 X113.979 Y174.883 E18.90280
G1 X112.679 Y175.323 E18.94014
G1 X112.269 Y175.433 E18.95169
G1 X103.099 Y177.253 E19.20604
G1 X102.649 Y177.313 E19.21839
G1 X99.739 Y177.493 E19.29771
G1 X99.319 Y177.493 E19.30914
G1 X96.729 Y177.323 E19.37975
G1 X96.259 Y177.253 E19.39268
G1 X86.769 Y175.223 E19.65671
G1 X86.329 Y175.093 E19.66920
G1 X85.009 Y174.613 E19.70741
G1 X84.579 Y174.423 E19.72020
G1 X84.189 Y174.183 E19.73266
G1 X82.489 Y172.943 E19.78991
G1 X82.179 Y172.693 E19.80074
G1 X81.909 Y172.403 E19.81152
G1 X80.109 Y170.273 E19.88739
G1 X79.909 Y170.003 E19.89654
G1 X79.729 Y169.723 E19.90559
G1 X78.669 Y167.783 E19.96574
G1 X78.529 Y167.493 E19.97450
G1 X53.449 Y87.703 E22.25003
G1 X53.329 Y87.223 E22.26349
G1 X53.109 Y85.803 E22.30258
G1 X53.079 Y85.233 E22.31811
G1 X53.109 Y83.903 E22.35431
G1 X58.309 Y28.233 E23.87549
G1 X58.538 Y27.337 E23.90065
G1 X59.089 Y27.473 F7800.000
G1 X59.529 Y26.763 E23.92338 F600.000
G1 X60.169 Y26.213 E23.94633
G1 X61.219 Y25.563 E23.97993
G1 X61.619 Y25.363 E23.99210
G1 X62.049 Y25.223 E24.00440
G1 X63.579 Y24.873 E24.04710
G1 X68.559 Y24.213 E24.18378
G1 X73.119 Y23.833 E24.30827
G1 X85.279 Y23.273 E24.63945
G1 X100.559 Y23.073 E25.05521
G1 X115.779 Y23.303 E25.46934
G1 X128.129 Y23.913 E25.80575
G1 X132.599 Y24.303 E25.92783
G1 X137.109 Y24.903 E26.05161
G1 X138.819 Y25.273 E26.09921
G1 X139.199 Y25.393 E26.11005
G1 X139.559 Y25.563 E26.12088
G1 X140.799 Y26.263 E26.15962
G1 X141.499 Y26.823 E26.18401
G1 X141.979 Y27.573 E26.20824
G1 X142.189 Y28.443 E26.23259
G1 X146.349 Y84.863 E27.77175
G1 X146.359 Y85.103 E27.77829
G1 X146.339 Y85.343 E27.78484
G1 X146.119 Y87.403 E27.84120
G1 X120.089 Y167.663 E30.13678
G1 X118.749 Y170.003 E30.21014
G1 X116.739 Y172.313 E30.29345
G1 X116.509 Y172.553 E30.30249
G1 X116.249 Y172.753 E30.31142
G1 X114.489 Y173.983 E30.36984
G1 X114.149 Y174.183 E30.38057
G1 X113.799 Y174.333 E30.39093
G1 X112.499 Y174.773 E30.42827
G1 X112.149 Y174.863 E30.43810
G1 X102.979 Y176.683 E30.69245
G1 X102.619 Y176.733 E30.70234
G1 X99.709 Y176.913 E30.78166
G1 X99.359 Y176.913 E30.79119
G1 X96.769 Y176.743 E30.86180
G1 X96.379 Y176.693 E30.87250
G1 X86.889 Y174.663 E31.13653
G1 X86.529 Y174.553 E31.14677
G1 X85.209 Y174.073 E31.18499
G1 X84.849 Y173.913 E31.19570
G1 X84.529 Y173.713 E31.20597
G1 X82.829 Y172.473 E31.26322
G1 X82.579 Y172.263 E31.27210
G1 X82.349 Y172.033 E31.28095
G1 X80.379 Y169.683 E31.36438
G1 X79.059 Y167.263 E31.43938
G1 X53.999 Y87.533 E33.71319
G1 X53.909 Y87.133 E33.72434
G1 X53.689 Y85.713 E33.76344
G1 X53.649 Y85.243 E33.77627
G1 X53.669 Y84.163 E33.80566
G1 X58.889 Y28.293 E35.33231
G1 X59.069 Y27.557 E35.35292
G1 X59.779 Y27.403 F7800.000
G1 X60.469 Y26.713 E35.37947 F600.000
G1 X61.519 Y26.063 E35.41306
G1 X61.839 Y25.893 E35.42292
G1 X62.179 Y25.793 E35.43256
G1 X63.909 Y25.403 E35.48081
G1 X68.609 Y24.793 E35.60976
G1 X73.169 Y24.413 E35.73425
G1 X85.289 Y23.853 E36.06434
G1 X100.549 Y23.653 E36.47955
G1 X115.769 Y23.883 E36.89369
G1 X128.079 Y24.493 E37.22901
G1 X132.549 Y24.883 E37.35109
G1 X137.029 Y25.473 E37.47402
G1 X138.689 Y25.843 E37.52030
G1 X138.989 Y25.933 E37.52882
G1 X139.279 Y26.063 E37.53746
G1 X140.519 Y26.763 E37.57620
G1 X141.279 Y27.483 E37.60469
G1 X141.609 Y28.483 E37.63334
G1 X145.769 Y84.903 E39.17250
G1 X145.769 Y85.283 E39.18284
G1 X145.589 Y87.063 E39.23152
G1 X145.549 Y87.283 E39.23760
G1 X145.489 Y87.513 E39.24407
G1 X119.639 Y167.223 E41.52390
G1 X119.459 Y167.633 E41.53608
G1 X118.389 Y169.493 E41.59446
G1 X118.269 Y169.663 E41.60012
G1 X118.139 Y169.833 E41.60594
G1 X116.299 Y171.933 E41.68190
G1 X116.119 Y172.123 E41.68903
G1 X115.919 Y172.283 E41.69599
G1 X114.159 Y173.513 E41.75441
G1 X113.889 Y173.663 E41.76282
G1 X113.609 Y173.783 E41.77110
G1 X112.039 Y174.303 E41.81610
G1 X102.869 Y176.123 E42.07045
G1 X99.669 Y176.333 E42.15770
G1 X99.399 Y176.333 E42.16505
G1 X96.809 Y176.163 E42.23566
G1 X96.499 Y176.123 E42.24417
G1 X87.009 Y174.093 E42.50820
G1 X86.719 Y174.013 E42.51638
G1 X85.399 Y173.533 E42.55460
G1 X85.129 Y173.403 E42.56275
G1 X84.869 Y173.243 E42.57105
G1 X83.169 Y172.003 E42.62830
G1 X82.969 Y171.843 E42.63527
G1 X82.789 Y171.653 E42.64239
G1 X80.859 Y169.353 E42.72408
G1 X79.689 Y167.223 E42.79020
G1 X79.519 Y166.843 E42.80152
G1 X54.549 Y87.363 E45.06811
G1 X54.479 Y87.043 E45.07702
G1 X54.259 Y85.623 E45.11612
G1 X54.229 Y85.253 E45.12622
G1 X54.259 Y84.013 E45.15996
G1 X59.459 Y28.343 E46.68115
G1 X59.751 Y27.485 E46.70580
G1 X60.269 Y27.713 F7800.000
G1 X60.779 Y27.203 E46.72543 F600.000
G1 X61.829 Y26.553 E46.75902
G1 X62.059 Y26.433 E46.76608
G1 X62.309 Y26.353 E46.77322
G1 X63.989 Y25.973 E46.82008
G1 X68.589 Y25.373 E46.94630
G1 X73.279 Y24.983 E47.07433
G1 X85.249 Y24.433 E47.40034
G1 X100.539 Y24.233 E47.81637
G1 X115.819 Y24.463 E48.23213
G1 X127.969 Y25.063 E48.56310
G1 X132.499 Y25.463 E48.68682
G1 X137.099 Y26.073 E48.81307
G1 X138.569 Y26.403 E48.85406
G1 X138.789 Y26.473 E48.86034
G1 X138.999 Y26.573 E48.86667
G1 X140.239 Y27.273 E48.90541
G1 X140.789 Y27.793 E48.92600
G1 X141.029 Y28.523 E48.94691
G1 X145.199 Y85.083 E50.48989
G1 X145.009 Y87.003 E50.54238
G1 X144.979 Y87.163 E50.54681
G1 X144.939 Y87.333 E50.55156
G1 X119.089 Y167.043 E52.83139
G1 X118.959 Y167.343 E52.84029
G1 X117.799 Y169.333 E52.90295
G1 X115.869 Y171.553 E52.98299
G1 X115.729 Y171.693 E52.98837
G1 X115.579 Y171.803 E52.99343
G1 X113.819 Y173.033 E53.05185
G1 X113.629 Y173.153 E53.05797
G1 X113.429 Y173.243 E53.06393
G1 X112.129 Y173.683 E53.10127
G1 X111.929 Y173.733 E53.10688
G1 X102.549 Y175.583 E53.36700
G1 X99.439 Y175.763 E53.45175
G1 X96.849 Y175.593 E53.52237
G1 X96.619 Y175.553 E53.52872
G1 X87.129 Y173.523 E53.79275
G1 X86.919 Y173.463 E53.79869
G1 X85.599 Y172.983 E53.83691
G1 X85.399 Y172.893 E53.84287
G1 X85.209 Y172.783 E53.84885
G1 X83.509 Y171.543 E53.90609
G1 X83.359 Y171.423 E53.91132
G1 X83.229 Y171.283 E53.91652
G1 X81.429 Y169.153 E53.99239
G1 X81.249 Y168.893 E54.00099
G1 X80.189 Y166.953 E54.06114
G1 X80.069 Y166.663 E54.06968
G1 X55.099 Y87.183 E56.33627
G1 X54.829 Y85.533 E56.38175
G1 X54.809 Y85.263 E56.38912
G1 X54.839 Y84.063 E56.42178
G1 X60.039 Y28.393 E57.94296
G1 X60.242 Y27.795 E57.96013
G1 X60.779 Y27.203 F6240.000 E57.44862
G1 X60.983 Y27.077 F6240.000 E57.29513
G1 F4200.000 E57.26013
G92 E0
G1 X54.484 Y25.037 F7800.000
G1 E0.70000 F4200.000
G1 X55.278 Y23.744 E0.74128 F600.000
G1 X55.671 Y23.248 E0.75849
G1 X55.878 Y23.041 E0.76647
G1 X56.981 Y22.095 E0.80599
G1 X57.351 Y21.825 E0.81845
G1 X58.658 Y21.022 E0.86020
G1 X59.420 Y20.632 E0.88348
G1 X59.735 Y20.497 E0.89280
G1 X60.773 Y20.171 E0.92240
G1 X62.434 Y19.790 E0.96877
G1 X63.018 Y19.678 E0.98496
G1 X68.036 Y19.026 E1.12262
G1 X72.969 Y18.617 E1.25730
G1 X85.021 Y18.064 E1.58552
G1 X98.613 Y17.885 E1.95537
G1 X98.738 Y17.834 E1.95903
G1 X100.612 Y17.862 E2.01003
G1 X102.516 Y17.862 E2.06183
G1 X102.587 Y17.892 E2.06392
G1 X116.103 Y18.096 E2.43168
G1 X128.529 Y18.713 E2.77019
G1 X133.130 Y19.115 E2.89582
G1 X137.901 Y19.743 E3.02676
G1 X138.464 Y19.845 E3.04232
G1 X140.001 Y20.190 E3.08517
G1 X141.016 Y20.499 E3.11404
G1 X142.029 Y20.964 E3.14436
G1 X143.577 Y21.843 E3.19279
G1 X143.851 Y22.038 E3.20195
G1 X145.049 Y23.006 E3.24386
G1 X145.271 Y23.217 E3.25217
G1 X145.507 Y23.481 E3.26182
G1 X145.691 Y23.725 E3.27014
G1 X146.562 Y25.095 E3.31431
G1 X146.705 Y25.368 E3.32267
G1 X146.845 Y25.696 E3.33238
G1 X146.942 Y25.987 E3.34074
G1 X147.306 Y27.478 E3.38250
G1 X147.382 Y27.964 E3.39588
G1 X151.551 Y84.498 E4.93815
G1 X151.570 Y85.124 E4.95520
G1 X151.535 Y85.800 E4.97359
G1 X151.342 Y87.707 E5.02576
G1 X151.237 Y88.411 E5.04512
G1 X151.009 Y89.272 E5.06935
G1 X125.145 Y169.026 E7.35043
G1 X124.934 Y169.604 E7.36718
G1 X124.774 Y169.964 E7.37790
G1 X124.489 Y170.500 E7.39442
G1 X123.382 Y172.425 E7.45482
G1 X122.989 Y173.040 E7.47467
G1 X122.525 Y173.634 E7.49518
G1 X120.549 Y175.884 E7.57666
G1 X120.021 Y176.408 E7.59690
G1 X119.391 Y176.917 E7.61894
G1 X117.443 Y178.284 E7.68368
G1 X116.590 Y178.797 E7.71076
G1 X115.667 Y179.207 E7.73825
G1 X114.077 Y179.750 E7.78396
G1 X113.262 Y179.966 E7.80689
G1 X103.967 Y181.812 E8.06473
G1 X102.979 Y181.943 E8.09182
G1 X99.819 Y182.133 E8.17797
G1 X99.048 Y182.116 E8.19894
G1 X96.401 Y181.943 E8.27110
G1 X95.416 Y181.819 E8.29813
G1 X85.698 Y179.741 E8.56848
G1 X84.837 Y179.492 E8.59287
G1 X83.388 Y178.967 E8.63481
G1 X82.592 Y178.624 E8.65838
G1 X82.298 Y178.471 E8.66740
G1 X81.480 Y177.940 E8.69394
G1 X79.699 Y176.641 E8.75390
G1 X79.086 Y176.143 E8.77540
G1 X78.387 Y175.416 E8.80284
G1 X76.553 Y173.246 E8.88014
G1 X76.079 Y172.627 E8.90135
G1 X75.673 Y171.982 E8.92209
G1 X74.577 Y169.976 E8.98428
G1 X74.232 Y169.228 E9.00669
G1 X74.004 Y168.607 E9.02470
G1 X49.015 Y89.067 E11.29299
G1 X48.768 Y88.062 E11.32114
G1 X48.519 Y86.464 E11.36514
G1 X48.439 Y85.264 E11.39787
G1 X48.483 Y83.507 E11.44568
G1 X53.695 Y27.718 E12.97011
G1 X53.776 Y27.251 E12.98303
G1 X54.139 Y25.849 E13.02241
G1 X54.229 Y25.584 E13.03002
G1 X54.444 Y25.114 E13.04409
G1 X54.988 Y25.321 F7800.000
G1 X55.759 Y24.066 E13.08418 F600.000
G1 X56.096 Y23.641 E13.09894
G1 X56.271 Y23.465 E13.10568
G1 X57.349 Y22.542 E13.14429
G1 X57.665 Y22.311 E13.15493
G1 X58.936 Y21.529 E13.19555
G1 X59.671 Y21.153 E13.21801
G1 X59.941 Y21.037 E13.22600
G1 X60.977 Y20.717 E13.25551
G1 X62.590 Y20.348 E13.30050
G1 X63.167 Y20.240 E13.31648
G1 X68.098 Y19.601 E13.45176
G1 X72.998 Y19.195 E13.58552
G1 X85.037 Y18.642 E13.91343
G1 X98.851 Y18.461 E14.28929
G1 X98.960 Y18.416 E14.29248
G1 X100.608 Y18.441 E14.33733
G1 X102.281 Y18.441 E14.38286
G1 X102.343 Y18.467 E14.38469
G1 X116.078 Y18.674 E14.75840
G1 X128.486 Y19.290 E15.09641
G1 X133.068 Y19.691 E15.22155
G1 X137.810 Y20.315 E15.35167
G1 X138.341 Y20.411 E15.36634
G1 X139.868 Y20.754 E15.40893
G1 X140.816 Y21.042 E15.43589
G1 X141.759 Y21.475 E15.46411
G1 X143.261 Y22.329 E15.51112
G1 X143.497 Y22.495 E15.51897
G1 X144.667 Y23.441 E15.55992
G1 X145.060 Y23.849 E15.57531
G1 X145.216 Y24.055 E15.58235
G1 X146.061 Y25.386 E15.62523
G1 X146.303 Y25.901 E15.64072
G1 X146.385 Y26.148 E15.64779
G1 X146.741 Y27.604 E15.68858
G1 X146.806 Y28.019 E15.70000
G1 X150.973 Y84.538 E17.24187
G1 X150.992 Y85.122 E17.25778
G1 X150.959 Y85.750 E17.27489
G1 X150.768 Y87.639 E17.32655
G1 X150.669 Y88.301 E17.34475
G1 X150.458 Y89.097 E17.36714
G1 X124.596 Y168.845 E19.64806
G1 X124.395 Y169.395 E19.66401
G1 X124.258 Y169.703 E19.67316
G1 X123.986 Y170.214 E19.68892
G1 X122.884 Y172.129 E19.74903
G1 X122.519 Y172.703 E19.76753
G1 X122.087 Y173.256 E19.78662
G1 X120.130 Y175.485 E19.86733
G1 X119.631 Y175.981 E19.88647
G1 X119.037 Y176.459 E19.90722
G1 X117.116 Y177.807 E19.97106
G1 X116.318 Y178.286 E19.99638
G1 X115.454 Y178.669 E20.02210
G1 X113.905 Y179.197 E20.06663
G1 X113.136 Y179.402 E20.08828
G1 X103.858 Y181.244 E20.34561
G1 X102.938 Y181.366 E20.37086
G1 X99.813 Y181.555 E20.45606
G1 X99.083 Y181.539 E20.47593
G1 X96.444 Y181.366 E20.54788
G1 X95.518 Y181.249 E20.57325
G1 X85.834 Y179.178 E20.84268
G1 X85.021 Y178.944 E20.86571
G1 X83.590 Y178.425 E20.90712
G1 X82.836 Y178.099 E20.92946
G1 X82.584 Y177.968 E20.93720
G1 X81.817 Y177.471 E20.96206
G1 X80.049 Y176.180 E21.02163
G1 X79.471 Y175.712 E21.04184
G1 X78.826 Y175.040 E21.06720
G1 X76.997 Y172.875 E21.14431
G1 X76.556 Y172.300 E21.16402
G1 X76.179 Y171.700 E21.18329
G1 X75.088 Y169.703 E21.24521
G1 X74.769 Y169.012 E21.26592
G1 X74.555 Y168.430 E21.28280
G1 X49.568 Y88.898 E23.55086
G1 X49.337 Y87.955 E23.57728
G1 X49.092 Y86.382 E23.62059
G1 X49.017 Y85.258 E23.65125
G1 X49.060 Y83.557 E23.69754
