;FLAVOR:UltiGCode
;TIME:5169
;MATERIAL:8772
;MATERIAL2:0
;NOZZLE_DIAMETER:0.400000
;NOZZLE_DIAMETER2:0.400000

;Layer count: 82
;LAYER:0
M107
G0 F9000 X69.155 Y82.020 Z0.300
;TYPE:SKIRT
G1 F1200 X70.021 Y81.357 E0.13088
G1 X70.772 Y80.998 E0.23077
G1 X71.458 Y80.793 E0.31668
G1 X72.082 Y80.695 E0.39248
G1 X157.668 Y80.686 E10.66280
G1 X158.505 Y80.774 E10.76379
G1 X159.460 Y81.087 E10.88439
G1 X160.293 Y81.566 E10.99970
G1 X160.966 Y82.141 E11.10592
G1 X161.629 Y83.007 E11.23680
G1 X162.007 Y83.798 E11.34200
G1 X162.280 Y84.812 E11.46802
G1 X162.299 Y134.165 E17.39038
G1 X162.299 Y139.655 E18.04918
G1 X162.205 Y140.545 E18.15657
G1 X161.805 Y141.661 E18.29883
G1 X161.203 Y142.572 E18.42986
G1 X160.318 Y143.405 E18.57571
G1 X159.331 Y143.934 E18.71009
G1 X158.710 Y144.138 E18.78853
G1 X157.965 Y144.277 E18.87947
G1 X151.490 Y144.286 E19.65647
G1 X72.331 Y144.286 E29.15555
G1 X71.476 Y144.195 E29.25873
G1 X70.554 Y143.887 E29.37538
G1 X69.786 Y143.465 E29.48054
G1 X68.967 Y142.757 E29.61045
G1 X68.413 Y142.035 E29.71965
G1 X67.982 Y141.126 E29.84037
G1 X67.841 Y140.657 E29.89914
G1 X67.709 Y139.951 E29.98533
G1 X67.701 Y134.169 E30.67917
G1 X67.701 Y85.278 E36.54609
G1 X67.826 Y84.320 E36.66203
G1 X68.121 Y83.490 E36.76773
G1 X68.580 Y82.693 E36.87810
G1 X69.155 Y82.020 E36.98432
G10
G0 F9000 X71.780 Y84.797
;TYPE:WALL-INNER
G11
G1 F1200 X72.020 Y84.614 E37.02054
G1 X72.141 Y84.555 E37.03669
G1 X72.301 Y84.508 E37.05670
G1 X72.382 Y84.495 E37.06655
G1 X157.465 Y84.486 E47.27651
G1 X157.708 Y84.512 E47.30583
G1 X157.905 Y84.576 E47.33069
G1 X158.095 Y84.685 E47.35697
G1 X158.189 Y84.766 E47.37186
G1 X158.372 Y85.006 E47.40808
G1 X158.428 Y85.123 E47.42365
G1 X158.480 Y85.314 E47.44740
G1 X158.499 Y139.451 E53.94384
G1 X158.474 Y139.691 E53.97280
G1 X158.381 Y139.950 E54.00582
G1 X158.276 Y140.109 E54.02868
G1 X158.081 Y140.293 E54.06086
G1 X157.829 Y140.428 E54.09516
G1 X157.767 Y140.448 E54.10298
G1 X157.611 Y140.477 E54.12202
G1 X72.535 Y140.486 E64.33114
G1 X72.286 Y140.460 E64.36118
G1 X72.086 Y140.393 E64.38650
G1 X71.966 Y140.327 E64.40293
G1 X71.746 Y140.136 E64.43789
G1 X71.674 Y140.043 E64.45200
G1 X71.539 Y139.758 E64.48985
G1 X71.509 Y139.597 E64.50950
G1 X71.501 Y85.526 E70.99802
G1 X71.542 Y85.211 E71.03614
G1 X71.585 Y85.089 E71.05166
G1 X71.699 Y84.891 E71.07908
G1 X71.780 Y84.797 E71.09397
G0 F9000 X94.205 Y133.238
G1 F1200 X93.699 Y133.553 E71.16549
G1 X93.252 Y133.938 E71.23629
G1 X92.990 Y134.235 E71.28381
G1 X92.872 Y134.388 E71.30700
G1 X92.644 Y134.741 E71.35743
G1 X92.394 Y135.275 E71.42818
G1 X92.230 Y135.838 E71.49855
G1 X92.171 Y136.218 E71.54469
G1 X92.150 Y136.607 E71.59144
G1 X92.155 Y136.808 E71.61557
G1 X92.226 Y137.383 E71.68509
G1 X92.393 Y137.955 E71.75660
G1 X92.646 Y138.496 E71.82827
G1 X92.982 Y138.989 E71.89986
G1 X93.384 Y139.419 E71.97050
G1 X93.722 Y139.694 E72.02279
G1 X94.225 Y140.003 E72.09363
G1 X94.768 Y140.228 E72.16416
G1 X95.160 Y140.334 E72.21289
G1 X95.554 Y140.396 E72.26075
G1 X95.951 Y140.416 E72.30845
G1 X96.355 Y140.395 E72.35700
G1 X96.927 Y140.290 E72.42678
G1 X97.320 Y140.161 E72.47642
G1 X97.851 Y139.908 E72.54700
G1 X98.342 Y139.570 E72.61853
G1 X98.770 Y139.165 E72.68924
G1 X99.036 Y138.834 E72.74020
G1 X99.338 Y138.341 E72.80958
G1 X99.563 Y137.798 E72.88011
G1 X99.669 Y137.406 E72.92884
G1 X99.731 Y137.011 E72.97682
G1 X99.751 Y136.585 E73.02800
G1 X99.702 Y135.999 E73.09856
G1 X99.559 Y135.419 E73.17024
G1 X99.328 Y134.870 E73.24172
G1 X99.013 Y134.364 E73.31324
G1 X98.628 Y133.917 E73.38404
G1 X98.331 Y133.655 E73.43156
G1 X98.178 Y133.537 E73.45475
G1 X97.825 Y133.309 E73.50518
G1 X97.291 Y133.059 E73.57593
G1 X96.728 Y132.895 E73.64630
G1 X96.346 Y132.835 E73.69270
G1 X95.921 Y132.815 E73.74376
G1 X95.334 Y132.864 E73.81444
G1 X94.754 Y133.007 E73.88613
G1 X94.205 Y133.238 E73.95760
G0 F9000 X143.025 Y122.143
G1 F1200 X143.192 Y122.715 E74.02911
G1 X143.445 Y123.256 E74.10077
G1 X143.781 Y123.749 E74.17237
G1 X144.183 Y124.179 E74.24301
G1 X144.521 Y124.454 E74.29529
G1 X145.024 Y124.763 E74.36613
G1 X145.567 Y124.988 E74.43667
G1 X145.959 Y125.094 E74.48540
G1 X146.352 Y125.155 E74.53312
G1 X146.758 Y125.177 E74.58191
G1 X147.344 Y125.130 E74.65246
G1 X147.916 Y124.993 E74.72304
G1 X148.303 Y124.845 E74.77276
G1 X148.813 Y124.567 E74.84246
G1 X149.129 Y124.338 E74.88929
G1 X149.553 Y123.942 E74.95891
G1 X149.828 Y123.604 E75.01120
G1 X150.137 Y123.101 E75.08204
G1 X150.362 Y122.558 E75.15257
G1 X150.468 Y122.166 E75.20130
G1 X150.530 Y121.772 E75.24916
G1 X150.551 Y121.347 E75.30023
G1 X150.501 Y120.758 E75.37116
G1 X150.358 Y120.180 E75.44261
G1 X150.127 Y119.629 E75.51431
G1 X149.812 Y119.123 E75.58583
G1 X149.427 Y118.677 E75.65653
G1 X149.130 Y118.415 E75.70406
G1 X148.977 Y118.297 E75.72725
G1 X148.624 Y118.069 E75.77767
G1 X148.090 Y117.819 E75.84843
G1 X147.527 Y117.655 E75.91880
G1 X147.145 Y117.595 E75.96520
G1 X146.720 Y117.575 E76.01625
G1 X146.133 Y117.624 E76.08694
G1 X145.554 Y117.767 E76.15851
G1 X145.003 Y117.998 E76.23020
G1 X144.497 Y118.313 E76.30173
G1 X144.051 Y118.698 E76.37243
G1 X143.789 Y118.995 E76.41995
G1 X143.671 Y119.148 E76.44314
G1 X143.443 Y119.501 E76.49357
G1 X143.193 Y120.035 E76.56432
G1 X143.029 Y120.598 E76.63469
G1 X142.970 Y120.978 E76.68084
G1 X142.949 Y121.368 E76.72771
G1 X142.954 Y121.568 E76.75171
G1 X143.025 Y122.143 E76.82124
G10
G0 F9000 X146.353 Y97.217
G11
G1 F1200 X146.750 Y97.237 E76.86894
G1 X147.154 Y97.216 E76.91748
G1 X147.726 Y97.111 E76.98727
G1 X148.119 Y96.982 E77.03691
G1 X148.650 Y96.729 E77.10749
G1 X149.141 Y96.391 E77.17902
G1 X149.569 Y95.986 E77.24973
G1 X149.835 Y95.655 E77.30069
G1 X150.137 Y95.162 E77.37006
G1 X150.362 Y94.619 E77.44060
G1 X150.468 Y94.227 E77.48932
G1 X150.530 Y93.833 E77.53719
G1 X150.551 Y93.408 E77.58825
G1 X150.501 Y92.819 E77.65918
G1 X150.358 Y92.240 E77.73075
G1 X150.127 Y91.691 E77.80223
G1 X149.812 Y91.185 E77.87375
G1 X149.427 Y90.738 E77.94454
G1 X149.130 Y90.476 E77.99207
G1 X148.977 Y90.358 E78.01525
G1 X148.624 Y90.130 E78.06568
G1 X148.090 Y89.880 E78.13644
G1 X147.527 Y89.716 E78.20680
G1 X147.146 Y89.656 E78.25309
G1 X146.721 Y89.635 E78.30415
G1 X146.132 Y89.685 E78.37508
G1 X145.554 Y89.828 E78.44654
G1 X145.003 Y90.059 E78.51823
G1 X144.497 Y90.374 E78.58976
G1 X144.051 Y90.759 E78.66046
G1 X143.789 Y91.056 E78.70798
G1 X143.671 Y91.209 E78.73117
G1 X143.443 Y91.562 E78.78160
G1 X143.193 Y92.096 E78.85235
G1 X143.029 Y92.659 E78.92272
G1 X142.970 Y93.039 E78.96887
G1 X142.949 Y93.429 E79.01573
G1 X142.954 Y93.629 E79.03974
G1 X143.025 Y94.204 E79.10927
G1 X143.192 Y94.776 E79.18077
G1 X143.445 Y95.317 E79.25244
G1 X143.781 Y95.810 E79.32403
G1 X144.183 Y96.240 E79.39467
G1 X144.521 Y96.515 E79.44696
G1 X145.024 Y96.824 E79.51780
G1 X145.567 Y97.049 E79.58833
G1 X145.959 Y97.155 E79.63706
G1 X146.353 Y97.217 E79.68492
G0 F9000 X146.394 Y96.818
;TYPE:WALL-OUTER
G1 F1200 X146.750 Y96.836 E79.72770
G1 X147.107 Y96.818 E79.77059
G1 X147.627 Y96.722 E79.83405
G1 X147.970 Y96.610 E79.87735
G1 X148.449 Y96.382 E79.94100
G1 X148.889 Y96.079 E80.00511
G1 X149.275 Y95.714 E80.06886
G1 X149.504 Y95.430 E80.11264
G1 X149.780 Y94.980 E80.17599
G1 X149.983 Y94.490 E80.23964
G1 X150.076 Y94.144 E80.28263
G1 X150.131 Y93.792 E80.32538
G1 X150.150 Y93.415 E80.37068
G1 X150.105 Y92.884 E80.43463
G1 X149.977 Y92.367 E80.49854
G1 X149.770 Y91.876 E80.56248
G1 X149.489 Y91.422 E80.62655
G1 X149.142 Y91.020 E80.69028
G1 X148.746 Y90.685 E80.75252
G1 X148.430 Y90.481 E80.79766
G1 X147.949 Y90.255 E80.86143
G1 X147.440 Y90.107 E80.92504
G1 X147.105 Y90.055 E80.96572
G1 X146.728 Y90.036 E81.01102
G1 X146.197 Y90.081 E81.07497
G1 X145.680 Y90.209 E81.13888
G1 X145.188 Y90.416 E81.20293
G1 X144.735 Y90.697 E81.26690
G1 X144.333 Y91.044 E81.33063
G1 X143.998 Y91.440 E81.39287
G1 X143.794 Y91.756 E81.43801
G1 X143.568 Y92.237 E81.50178
G1 X143.420 Y92.746 E81.56539
G1 X143.368 Y93.081 E81.60607
G1 X143.349 Y93.434 E81.64849
G1 X143.353 Y93.599 E81.66830
G1 X143.418 Y94.123 E81.73166
G1 X143.567 Y94.635 E81.79565
G1 X143.794 Y95.118 E81.85969
G1 X144.094 Y95.559 E81.92370
G1 X144.457 Y95.947 E81.98746
G1 X144.753 Y96.188 E82.03326
G1 X145.206 Y96.467 E82.09710
G1 X145.696 Y96.670 E82.16075
G1 X146.042 Y96.763 E82.20374
G1 X146.394 Y96.818 E82.24650
G0 F9000 X146.379 Y97.117
G0 X148.119 Y96.981
G0 X149.835 Y95.653
G0 X150.551 Y93.408
G0 X157.476 Y84.386
G0 X157.488 Y84.086
G1 F1200 X157.791 Y84.118 E82.28306
G1 X158.068 Y84.209 E82.31805
G1 X158.323 Y84.355 E82.35331
G1 X158.484 Y84.492 E82.37867
G1 X158.716 Y84.796 E82.42456
G1 X158.804 Y84.981 E82.44915
G1 X158.880 Y85.262 E82.48408
G1 X158.899 Y139.474 E88.98952
G1 X158.866 Y139.782 E89.02669
G1 X158.742 Y140.129 E89.07091
G1 X158.585 Y140.368 E89.10522
G1 X158.314 Y140.622 E89.14980
G1 X157.989 Y140.796 E89.19403
G1 X157.868 Y140.836 E89.20933
G1 X157.646 Y140.877 E89.23642
G1 X72.512 Y140.886 E99.45250
G1 X72.203 Y140.853 E99.48979
G1 X71.921 Y140.759 E99.52546
G1 X71.739 Y140.659 E99.55038
G1 X71.455 Y140.414 E99.59539
G1 X71.331 Y140.252 E99.61987
G1 X71.151 Y139.860 E99.67163
G1 X71.109 Y139.632 E99.69945
G1 X71.101 Y85.497 E106.19565
G1 X71.150 Y85.118 E106.24151
G1 X71.221 Y84.921 E106.26664
G1 X71.369 Y84.663 E106.30233
G1 X71.506 Y84.502 E106.32770
G1 X71.810 Y84.270 E106.37359
G1 X71.994 Y84.182 E106.39806
G1 X72.212 Y84.117 E106.42536
G1 X72.351 Y84.095 E106.44225
G1 X157.488 Y84.086 E116.65869
G0 F9000 X157.476 Y84.386
G0 X147.488 Y117.752
G0 X147.440 Y118.046
G1 F1200 X147.104 Y117.994 E116.69949
G1 X146.727 Y117.976 E116.74478
G1 X146.198 Y118.020 E116.80848
G1 X145.680 Y118.148 E116.87251
G1 X145.188 Y118.355 E116.93656
G1 X144.735 Y118.636 E117.00053
G1 X144.333 Y118.983 E117.06426
G1 X143.998 Y119.379 E117.12650
G1 X143.794 Y119.695 E117.17163
G1 X143.568 Y120.176 E117.23541
G1 X143.420 Y120.685 E117.29902
G1 X143.368 Y121.020 E117.33970
G1 X143.349 Y121.373 E117.38212
G1 X143.353 Y121.538 E117.40193
G1 X143.418 Y122.062 E117.46529
G1 X143.567 Y122.574 E117.52928
G1 X143.794 Y123.057 E117.59332
G1 X144.094 Y123.498 E117.65732
G1 X144.457 Y123.886 E117.72108
G1 X144.753 Y124.127 E117.76689
G1 X145.206 Y124.406 E117.83073
G1 X145.696 Y124.609 E117.89438
G1 X146.042 Y124.702 E117.93737
G1 X146.394 Y124.757 E117.98012
G1 X146.753 Y124.776 E118.02326
G1 X147.281 Y124.734 E118.08682
G1 X147.797 Y124.610 E118.15051
G1 X148.135 Y124.481 E118.19392
G1 X148.599 Y124.228 E118.25734
G1 X148.874 Y124.029 E118.29807
G1 X149.260 Y123.668 E118.36149
G1 X149.501 Y123.372 E118.40730
G1 X149.780 Y122.919 E118.47114
G1 X149.983 Y122.429 E118.53479
G1 X150.076 Y122.083 E118.57778
G1 X150.131 Y121.731 E118.62053
G1 X150.150 Y121.354 E118.66583
G1 X150.105 Y120.823 E118.72978
G1 X149.977 Y120.306 E118.79369
G1 X149.770 Y119.814 E118.85775
G1 X149.489 Y119.361 E118.92171
G1 X149.142 Y118.959 E118.98544
G1 X148.746 Y118.624 E119.04768
G1 X148.430 Y118.420 E119.09282
G1 X147.949 Y118.194 E119.15659
G1 X147.440 Y118.046 E119.22020
G0 F9000 X147.488 Y117.752
G0 X145.555 Y117.768
G0 X144.052 Y118.699
G0 X99.455 Y135.430
G0 X99.178 Y135.546
G1 F1200 X98.971 Y135.055 E119.28414
G1 X98.690 Y134.601 E119.34822
G1 X98.343 Y134.199 E119.41194
G1 X97.947 Y133.864 E119.47418
G1 X97.631 Y133.660 E119.51932
G1 X97.150 Y133.434 E119.58309
G1 X96.641 Y133.286 E119.64670
G1 X96.305 Y133.234 E119.68750
G1 X95.928 Y133.216 E119.73279
G1 X95.399 Y133.260 E119.79649
G1 X94.881 Y133.388 E119.86052
G1 X94.390 Y133.595 E119.92447
G1 X93.936 Y133.876 E119.98854
G1 X93.534 Y134.223 E120.05226
G1 X93.199 Y134.619 E120.11451
G1 X92.995 Y134.935 E120.15964
G1 X92.769 Y135.416 E120.22341
G1 X92.621 Y135.925 E120.28702
G1 X92.569 Y136.260 E120.32771
G1 X92.550 Y136.612 E120.37001
G1 X92.554 Y136.778 E120.38993
G1 X92.619 Y137.302 E120.45329
G1 X92.768 Y137.814 E120.51728
G1 X92.995 Y138.297 E120.58133
G1 X93.295 Y138.738 E120.64533
G1 X93.658 Y139.126 E120.70909
G1 X93.954 Y139.367 E120.75489
G1 X94.407 Y139.646 E120.81874
G1 X94.897 Y139.849 E120.88238
G1 X95.243 Y139.942 E120.92538
G1 X95.595 Y139.997 E120.96813
G1 X95.951 Y140.015 E121.01090
G1 X96.308 Y139.997 E121.05380
G1 X96.828 Y139.901 E121.11725
G1 X97.171 Y139.789 E121.16055
G1 X97.650 Y139.561 E121.22421
G1 X98.090 Y139.258 E121.28832
G1 X98.476 Y138.893 E121.35207
G1 X98.705 Y138.609 E121.39585
G1 X98.981 Y138.159 E121.45919
G1 X99.184 Y137.669 E121.52284
G1 X99.277 Y137.323 E121.56583
G1 X99.332 Y136.970 E121.60871
G1 X99.350 Y136.592 E121.65412
G1 X99.306 Y136.064 E121.71770
G1 X99.178 Y135.546 E121.78173
G0 F9000 X99.770 Y135.691
;TYPE:SKIN
G1 F1200 X104.420 Y140.341 E122.57086
G0 F9000 X103.854 Y140.341
G1 F1200 X99.871 Y136.358 E123.24680
G0 F9000 X99.874 Y136.926
G1 F1200 X103.289 Y140.341 E123.82634
G0 F9000 X102.723 Y140.341
G1 F1200 X99.808 Y137.426 E124.32103
G0 F9000 X99.685 Y137.868
G1 F1200 X102.157 Y140.341 E124.74063
G0 F9000 X101.592 Y140.341
G1 F1200 X99.519 Y138.269 E125.09234
G0 F9000 X99.320 Y138.636
G1 F1200 X101.026 Y140.341 E125.38178
G0 F9000 X100.460 Y140.341
G1 F1200 X99.097 Y138.978 E125.61309
G0 F9000 X98.842 Y139.288
G1 F1200 X99.895 Y140.341 E125.79179
G0 F9000 X99.329 Y140.341
G1 F1200 X98.551 Y139.563 E125.92382
G0 F9000 X98.235 Y139.813
G1 F1200 X98.480 Y140.341 E126.01322
G1 X97.764 Y140.191 E126.06414
G1 X97.513 Y140.222 E126.09449
G0 F9000 X94.239 Y140.343
G1 F1200 X93.805 Y139.908 E126.16822
G0 F9000 X92.660 Y138.764
G1 F1200 X71.645 Y117.748 E129.73467
G0 F9000 X71.645 Y117.183
G1 F1200 X92.177 Y137.715 E133.21907
G0 F9000 X92.039 Y137.011
G1 F1200 X71.644 Y116.616 E136.68022
G0 F9000 X71.644 Y116.051
G1 F1200 X92.020 Y136.426 E140.13805
G0 F9000 X92.075 Y135.916
G1 F1200 X71.644 Y115.485 E143.60531
G0 F9000 X71.644 Y114.919
G1 F1200 X92.192 Y135.467 E147.09242
G0 F9000 X92.343 Y135.053
G1 F1200 X71.644 Y114.354 E150.60516
G0 F9000 X71.644 Y113.788
G1 F1200 X92.524 Y134.668 E154.14861
G0 F9000 X92.746 Y134.324
G1 F1200 X71.644 Y113.222 E157.72974
G0 F9000 X71.644 Y112.656
G1 F1200 X93.000 Y134.012 E161.35397
G0 F9000 X93.280 Y133.726
G1 F1200 X71.644 Y112.090 E165.02572
G0 F9000 X71.644 Y111.524
G1 F1200 X93.584 Y133.464 E168.74906
G0 F9000 X93.929 Y133.244
G1 F1200 X71.644 Y110.959 E172.53095
G0 F9000 X71.644 Y110.393
G1 F1200 X94.296 Y133.046 E176.37521
G0 F9000 X94.695 Y132.879
G1 F1200 X71.644 Y109.827 E180.28718
G0 F9000 X71.644 Y109.262
G1 F1200 X95.146 Y132.764 E184.27560
G0 F9000 X95.644 Y132.697
G1 F1200 X71.644 Y108.696 E188.34862
G0 F9000 X71.644 Y108.130
G1 F1200 X96.201 Y132.687 E192.51608
G0 F9000 X96.867 Y132.788
G1 F1200 X71.643 Y107.564 E196.79674
G0 F9000 X71.643 Y106.998
G1 F1200 X97.775 Y133.130 E201.23148
G0 F9000 X99.455 Y134.811
G1 F1200 X104.986 Y140.341 E202.17004
G0 F9000 X105.551 Y140.341
G1 F1200 X71.643 Y106.433 E207.92442
G0 F9000 X71.643 Y105.867
G1 F1200 X106.116 Y140.340 E213.77468
G0 F9000 X106.682 Y140.340
G1 F1200 X71.643 Y105.301 E219.72100
G0 F9000 X71.643 Y104.735
G1 F1200 X107.248 Y140.340 E225.76337
G0 F9000 X107.813 Y140.340
G1 F1200 X71.643 Y104.170 E231.90162
G0 F9000 X71.643 Y103.604
G1 F1200 X108.379 Y140.340 E238.13592
G0 F9000 X108.945 Y140.340
G1 F1200 X71.642 Y103.038 E244.46637
G0 F9000 X71.642 Y102.472
G1 F1200 X109.511 Y140.340 E250.89287
G0 F9000 X110.076 Y140.340
G1 F1200 X71.642 Y101.906 E257.41533
G0 F9000 X71.642 Y101.341
G1 F1200 X110.642 Y140.340 E264.03377
G0 F9000 X111.208 Y140.340
G1 F1200 X71.642 Y100.775 E270.74826
G0 F9000 X71.642 Y100.209
G1 F1200 X111.773 Y140.340 E277.55871
G0 F9000 X112.339 Y140.340
G1 F1200 X71.642 Y99.644 E284.46514
G0 F9000 X71.642 Y99.078
G1 F1200 X112.905 Y140.340 E291.46762
G0 F9000 X113.470 Y140.340
G1 F1200 X71.641 Y98.511 E298.56623
G0 F9000 X71.641 Y97.946
G1 F1200 X114.036 Y140.340 E305.76082
G0 F9000 X114.602 Y140.340
G1 F1200 X71.641 Y97.380 E313.05146
G0 F9000 X71.641 Y96.814
G1 F1200 X115.167 Y140.340 E320.43806
G0 F9000 X115.732 Y140.340
G1 F1200 X71.641 Y96.249 E327.92055
G0 F9000 X71.641 Y95.683
G1 F1200 X116.298 Y140.340 E335.49910
G0 F9000 X116.864 Y140.340
G1 F1200 X71.641 Y95.117 E343.17370
G0 F9000 X71.641 Y94.552
